modules/framework7-icons/icons/money_yen_fill.svg

<?xml version="1.0" encoding="UTF-8"?>
<svg width="50px" height="50px" viewBox="0 0 50 50" version="1.1" xmlns="http://www.w3.org/2000/svg" xmlns:xlink="http://www.w3.org/1999/xlink">
    <!-- Generator: Sketch 40.1 (33804) - http://www.bohemiancoding.com/sketch -->
    <title>money_yen_fill</title>
    <desc>Created with Sketch.</desc>
    <defs></defs>
    <g id="Page-1" stroke="none" stroke-width="1" fill="none" fill-rule="evenodd">
        <g id="money_yen_fill" fill="#000000">
            <path d="M25,50 C38.8071187,50 50,38.8071187 50,25 C50,11.1928813 38.8071187,0 25,0 C11.1928813,0 0,11.1928813 0,25 C0,38.8071187 11.1928813,50 25,50 Z M31.2617188,32.5507812 L31.2617188,30.7050781 L25.9179688,30.7050781 L25.9179688,27.4707031 L31.2617188,27.4707031 L31.2617188,25.6074219 L26.7265625,25.6074219 L35.0058594,12.6347656 L32.2460938,12.6347656 L24.7753906,24.5 L24.6699219,24.5 L17.1816406,12.6347656 L14.421875,12.6347656 L22.71875,25.6074219 L18.1660156,25.6074219 L18.1660156,27.4707031 L23.5273438,27.4707031 L23.5273438,30.7050781 L18.1660156,30.7050781 L18.1660156,32.5507812 L23.5273438,32.5507812 L23.5273438,38 L25.9179688,38 L25.9179688,32.5507812 L31.2617188,32.5507812 Z" id="Combined-Shape"></path>
        </g>
    </g>
</svg>

<svg width="50" height="50" xmlns="http://www.w3.org/2000/svg"><path d="M25 50c13.807 0 25-11.193 25-25S38.807 0 25 0 0 11.193 0 25s11.193 25 25 25zm6.262-17.45v-1.845h-5.344v-3.234h5.344v-1.864h-4.535l8.279-12.972h-2.76L24.776 24.5h-.106l-7.488-11.865h-2.76l8.297 12.972h-4.553v1.864h5.361v3.234h-5.361v1.846h5.361V38h2.391v-5.45h5.344z" fill-rule="evenodd"/></svg>
